X:1
T:Title
%%score { ( 1 3 4 ) | ( 2 5 ) }
L:1/8
M:4/4
K:Bb
V:1 treble nm="Grand Piano"
V:3 treble 
V:4 treble 
V:2 bass 
V:5 bass 
V:1
 z4 z2[Q:1/4=100] [DF][DF] | [DB]2 [EB]2 [FB]2 [Fc][GB] | B2 A2 A2 G2 | F2 [EF]>[DF] G2 E2 | %4
 D6 [DF][DF] | [DB]2 [EB]2 [FB]2 [Fc][GB] | B2 A2 A2 [FA][FB] | [=Ec]2 [EG]2 [EA]2 [EB]2 | c6 cc | %9
 [Fd]2 [Fd]2 c2 AA | B2 B2 [^FA]2 GG | F2 BB B2 A2 |[M:11/16] d/-d/-d-<dc[DB]3/2 |[M:3/8] FA>B | %14
[M:4/4] c6 z2 | d6 z2 | [^Fd]3 [FA] B2 G2 |[M:9/8] d6- d z z |[M:4/4] f2 d2 [FB]2 [DB][DB] | %19
 c2 B2 A2 GG | F2 BB B2 A2 |[M:7/8] d3 c [DFB]3 |] %22
V:2
 z4 z2 [B,,B,][B,,B,] | [B,,B,]2 [C,B,]2 [D,B,]2 [E,B,][E,E] | [F,DF]2 [F,CF]2 [F,CF]2 [E,A,C]2 | %3
 [D,B,D]2 [C,A,]>[B,,B,] [E,B,E]2 [F,C]2 | [B,,F,B,]6 [B,,B,][B,,B,] | %5
 [B,,B,]2 [C,B,]2 [D,B,]2 [E,B,][E,E] | [F,DF]2 [F,CF]2 [F,CF]2 [E,C][D,B,] | %7
 [C,B,]2 [C,B,]2 [C,A,]2 [C,G,]2 | [F,A,E]6 [F,A,F][F,A,F] | %9
 [B,,B,]2 [B,,B,]2 [F,A,F]2 [F,CE][F,CE] | [G,B,D]2 [G,DG]2[K:bass] [D,C]2 [E,B,][E,B,E] | %11
 [F,B,D]2 [F,D][F,D] [F,D]2 [F,CF]2 | %12
[M:11/16] [F,B,F]/-[F,B,F]/-[F,B,F]-<[F,B,F][F,A,E][B,,B,]3/2 |[M:3/8] z3 | %14
[M:4/4] z [F,A,] [F,A,]>[F,A,] [F,A,]2 z2 | %15
 z [B,,B,] [B,,B,]>[B,,B,] [B,,B,][K:treble][G,B,G] [G,B,G]>[G,B,G] | %16
 [D,A,]3 [D,C] [G,B,G]2 [E,B,]2 |[M:9/8] A,A,C- C/B,/ A,2- A,[K:treble][B,F][B,CF] | %18
[M:4/4] [B,DF]2[K:bass] [F,B,F]2 [D,B,]2 [B,,F,][B,,F,] | %19
 [E,G,E]2 [E,G,E]2 [E,CE]2 [E,B,E][E,B,E] | [F,B,D]2 [F,B,D][F,CE] [F,DF]2 [F,CF]2 | %21
[M:7/8] [F,B,F]3 [F,EF] B,,3 |] %22
V:3
 x8 | x8 | x8 | x8 | x8 | x8 | x8 | x8 | x8 | x8 | x8 | x8 |[M:11/16] x11/2 |[M:3/8] x3 | %14
[M:4/4] z F F>F z A B>c | z F F>F Fd d>d | x8 |[M:9/8] ^FFA- A/G/ F2- Fde |[M:4/4] x8 | x8 | x8 | %21
[M:7/8] x7 |] %22
V:4
 x8 | x8 | x8 | x8 | x8 | x8 | x8 | x8 | x8 | x8 | x8 | x8 |[M:11/16] x11/2 |[M:3/8] x3 | %14
[M:4/4] z4 F2 z2 | x8 | x8 |[M:9/8] x9 |[M:4/4] x8 | x8 | x8 |[M:7/8] x7 |] %22
V:5
 x8 | x8 | x8 | x8 | x8 | x8 | x8 | x8 | x8 | x8 | x4[K:bass] x4 | x8 |[M:11/16] x11/2 | %13
[M:3/8] x3 |[M:4/4] x8 | x5[K:treble] x3 | x8 |[M:9/8] D,6- D,[K:treble] z z | %18
[M:4/4] x2[K:bass] x6 | x8 | x8 |[M:7/8] x7 |] %22

